;FLAVOR:Marlin
;TIME:6551
;Filament used: 4.91711m
;Layer height: 0.2
;MINX:61.521
;MINY:61.521
;MINZ:0.2
;MAXX:173.479
;MAXY:173.479
;MAXZ:10
;Generated with Cura_SteamEngine 4.6.1
M140 S50
M105
M190 S50
M104 S200
M105
M109 S200
M82 ;absolute extrusion mode
; Ender 3 Custom Start G-code
G92 E0 ; Reset Extruder
G28 ; Home all axes
G1 Z2.0 F3000 ; Move Z Axis up little to prevent scratching of Heat Bed
G1 X0.1 Y20 Z0.3 F5000.0 ; Move to start position
G1 X0.1 Y200.0 Z0.3 F1500.0 E15 ; Draw the first line
G1 X0.4 Y200.0 Z0.3 F5000.0 ; Move to side a little
G1 X0.4 Y20 Z0.3 F1500.0 E30 ; Draw the second line
G92 E0 ; Reset Extruder
G1 Z2.0 F3000 ; Move Z Axis up little to prevent scratching of Heat Bed
G1 X5 Y20 Z0.3 F5000.0 ; Move over to prevent blob squish
G92 E0
G92 E0
G1 F2700 E-5
;LAYER_COUNT:50
;LAYER:0
M107
G0 F6000 X121.721 Y62.495 Z0.2
;TYPE:SKIRT
G1 F2700 E0
G1 F1200 X122.373 Y62.536 E0.02173
G1 X123.005 Y62.596 E0.04284
G1 X124.459 Y62.784 E0.09161
G1 X127.159 Y63.185 E0.18239
G1 X127.73 Y63.277 E0.20163
G1 X128.388 Y63.405 E0.22393
G1 X129.762 Y63.723 E0.27083
G1 X132.539 Y64.419 E0.36605
G1 X133.004 Y64.542 E0.38205
G1 X133.627 Y64.728 E0.40368
G1 X134.879 Y65.149 E0.44761
G1 X137.626 Y66.132 E0.54465
G1 X138.138 Y66.323 E0.56282
G1 X138.733 Y66.567 E0.58421
G1 X139.905 Y67.093 E0.62694
G1 X142.552 Y68.348 E0.72437
G1 X143.187 Y68.659 E0.74789
G1 X143.677 Y68.915 E0.76628
G1 X144.215 Y69.221 E0.78686
G1 X147.26 Y71.046 E0.90494
G1 X147.863 Y71.419 E0.92852
G1 X148.332 Y71.728 E0.9472
G1 X148.782 Y72.046 E0.96553
G1 X148.998 Y72.205 E0.97445
G1 X151.657 Y74.178 E1.08457
G1 X152.104 Y74.518 E1.10325
G1 X152.62 Y74.937 E1.12536
G1 X153.565 Y75.761 E1.16706
G1 X155.741 Y77.734 E1.26476
G1 X156.279 Y78.236 E1.28923
G1 X156.693 Y78.645 E1.30859
G1 X157.244 Y79.234 E1.33541
G1 X159.474 Y81.697 E1.44592
G1 X159.826 Y82.096 E1.46362
G1 X160.232 Y82.586 E1.48478
G1 X161.004 Y83.584 E1.52675
G1 X162.791 Y85.996 E1.62659
G1 X163.114 Y86.447 E1.64504
G1 X163.444 Y86.938 E1.66472
G1 X164.121 Y88.015 E1.70703
G1 X165.644 Y90.56 E1.80567
G1 X166.001 Y91.176 E1.82936
G1 X166.263 Y91.658 E1.8476
G1 X166.55 Y92.23 E1.86889
G1 X168.065 Y95.432 E1.98671
G1 X168.27 Y95.883 E2.00318
G1 X168.511 Y96.461 E2.02401
G1 X169.031 Y97.826 E2.07259
G1 X169.982 Y100.492 E2.16674
G1 X170.155 Y101 E2.18459
G1 X170.337 Y101.592 E2.20519
G1 X170.684 Y102.868 E2.24917
G1 X171.385 Y105.669 E2.3452
G1 X171.55 Y106.364 E2.36896
G1 X171.678 Y106.987 E2.39011
G1 X171.775 Y107.568 E2.40971
G1 X172.287 Y111.018 E2.52571
G1 X172.359 Y111.556 E2.54376
G1 X172.424 Y112.198 E2.56523
G1 X172.522 Y113.622 E2.6127
G1 X172.658 Y116.412 E2.70561
G1 X172.677 Y116.97 E2.72418
G1 X172.679 Y117.606 E2.74533
G1 X172.636 Y119.051 E2.79341
G1 X172.496 Y121.875 E2.88745
G1 X172.464 Y122.373 E2.90405
G1 X172.404 Y123.005 E2.92517
G1 X172.217 Y124.457 E2.97386
G1 X171.817 Y127.15 E3.06441
G1 X171.722 Y127.737 E3.08419
G1 X171.595 Y128.388 E3.10625
G1 X171.277 Y129.762 E3.15316
G1 X170.576 Y132.556 E3.24897
G1 X170.458 Y132.999 E3.26421
G1 X170.278 Y133.602 E3.28514
G1 X169.819 Y134.97 E3.33314
G1 X168.87 Y137.621 E3.42679
G1 X168.696 Y138.089 E3.4434
G1 X168.444 Y138.702 E3.46544
G1 X167.843 Y140.039 E3.5142
G1 X166.649 Y142.558 E3.60691
G1 X166.339 Y143.192 E3.63039
G1 X166.06 Y143.724 E3.65037
G1 X165.782 Y144.209 E3.66896
G1 X163.956 Y147.257 E3.78714
G1 X163.584 Y147.859 E3.81067
G1 X163.203 Y148.431 E3.83353
G1 X162.812 Y148.976 E3.85584
G1 X160.817 Y151.665 E3.9672
G1 X160.478 Y152.11 E3.98581
G1 X160.063 Y152.62 E4.00768
G1 X159.237 Y153.566 E4.04945
G1 X157.273 Y155.732 E4.1467
G1 X156.769 Y156.273 E4.17129
G1 X156.355 Y156.693 E4.1909
G1 X155.766 Y157.244 E4.21773
G1 X153.303 Y159.474 E4.32824
G1 X152.904 Y159.826 E4.34593
G1 X152.414 Y160.232 E4.3671
G1 X151.416 Y161.004 E4.40907
G1 X149.004 Y162.791 E4.50891
G1 X148.553 Y163.114 E4.52736
G1 X148.062 Y163.444 E4.54703
G1 X146.986 Y164.121 E4.58932
G1 X144.436 Y165.647 E4.68816
G1 X143.823 Y166.002 E4.71172
G1 X143.344 Y166.262 E4.72984
G1 X142.77 Y166.55 E4.7512
G1 X139.579 Y168.06 E4.86862
G1 X138.965 Y168.34 E4.89107
G1 X138.467 Y168.551 E4.90905
G1 X138.162 Y168.671 E4.91996
G1 X137.865 Y168.782 E4.9305
G1 X134.546 Y169.969 E5.04774
G1 X133.98 Y170.162 E5.06763
G1 X133.384 Y170.345 E5.08836
G1 X132.179 Y170.673 E5.1299
G1 X129.319 Y171.388 E5.22795
G1 X128.626 Y171.552 E5.25164
G1 X128.025 Y171.675 E5.27204
G1 X127.432 Y171.775 E5.29204
G1 X123.977 Y172.288 E5.40822
G1 X123.437 Y172.36 E5.42634
G1 X122.801 Y172.424 E5.4476
G1 X121.377 Y172.522 E5.49507
G1 X118.587 Y172.658 E5.58798
G1 X118.03 Y172.677 E5.60651
G1 X117.393 Y172.679 E5.6277
G1 X115.949 Y172.636 E5.67575
G1 X113.126 Y172.496 E5.76976
G1 X112.596 Y172.462 E5.78742
G1 X111.976 Y172.403 E5.80814
G1 X110.671 Y172.237 E5.85189
G1 X107.778 Y171.806 E5.94918
G1 X107.078 Y171.691 E5.97277
G1 X106.565 Y171.593 E5.99014
G1 X105.912 Y171.446 E6.0124
G1 X102.488 Y170.589 E6.1298
G1 X101.987 Y170.455 E6.14705
G1 X101.392 Y170.276 E6.16771
G1 X100.035 Y169.82 E6.21533
G1 X97.377 Y168.869 E6.30922
G1 X96.869 Y168.68 E6.32725
G1 X96.265 Y168.433 E6.34895
G1 X95.103 Y167.911 E6.39132
G1 X92.432 Y166.645 E6.48963
G1 X91.808 Y166.339 E6.51275
G1 X91.323 Y166.085 E6.53096
G1 X90.785 Y165.779 E6.55154
G1 X87.736 Y163.951 E6.66978
G1 X87.135 Y163.579 E6.69329
G1 X86.668 Y163.272 E6.71188
G1 X86.059 Y162.837 E6.73677
G1 X83.335 Y160.817 E6.84957
G1 X82.89 Y160.478 E6.86817
G1 X82.38 Y160.063 E6.89004
G1 X81.435 Y159.239 E6.93174
G1 X79.254 Y157.261 E7.02967
G1 X78.72 Y156.762 E7.05398
G1 X78.332 Y156.379 E7.07211
G1 X77.758 Y155.767 E7.10002
G1 X75.48 Y153.253 E7.21286
G1 X75.156 Y152.884 E7.22919
G1 X74.764 Y152.409 E7.24968
G1 X73.996 Y151.416 E7.29143
G1 X72.21 Y149.005 E7.39122
G1 X71.907 Y148.582 E7.40853
G1 X71.566 Y148.075 E7.42885
G1 X70.802 Y146.856 E7.4767
G1 X69.362 Y144.449 E7.56999
G1 X69 Y143.824 E7.59401
G1 X68.699 Y143.266 E7.6151
G1 X68.369 Y142.6 E7.63982
G1 X66.942 Y139.584 E7.7508
G1 X66.652 Y138.948 E7.77404
G1 X66.394 Y138.328 E7.79638
G1 X66.148 Y137.672 E7.81968
G1 X65.043 Y134.581 E7.92886
G1 X64.84 Y133.987 E7.94974
G1 X64.655 Y133.384 E7.97072
G1 X64.327 Y132.179 E8.01226
G1 X63.612 Y129.319 E8.11031
G1 X63.448 Y128.626 E8.13399
G1 X63.325 Y128.025 E8.1544
G1 X63.225 Y127.432 E8.1744
G1 X62.712 Y123.977 E8.29057
G1 X62.64 Y123.437 E8.30869
G1 X62.576 Y122.801 E8.32995
G1 X62.478 Y121.377 E8.37743
G1 X62.342 Y118.587 E8.47033
G1 X62.323 Y118.031 E8.48884
G1 X62.321 Y117.394 E8.51002
G1 X62.364 Y115.949 E8.5581
G1 X62.504 Y113.126 E8.65211
G1 X62.538 Y112.596 E8.66978
G1 X62.597 Y111.976 E8.69049
G1 X62.763 Y110.671 E8.73425
G1 X63.193 Y107.783 E8.83136
G1 X63.28 Y107.252 E8.84926
G1 X63.402 Y106.63 E8.87034
G1 X63.724 Y105.23 E8.91812
G1 X64.419 Y102.461 E9.01307
G1 X64.542 Y101.996 E9.02907
G1 X64.728 Y101.373 E9.05069
G1 X65.149 Y100.121 E9.09463
G1 X66.131 Y97.378 E9.19153
G1 X66.321 Y96.868 E9.20963
G1 X66.566 Y96.268 E9.23119
G1 X67.093 Y95.096 E9.27393
G1 X68.356 Y92.43 E9.37205
G1 X68.661 Y91.808 E9.39509
G1 X68.915 Y91.323 E9.4133
G1 X69.221 Y90.785 E9.43388
G1 X71.041 Y87.749 E9.55162
G1 X71.415 Y87.143 E9.5753
G1 X71.808 Y86.554 E9.59885
G1 X72.188 Y86.025 E9.62051
G1 X74.176 Y83.345 E9.7315
G1 X74.515 Y82.899 E9.75013
G1 X74.935 Y82.383 E9.77226
G1 X75.766 Y81.43 E9.81432
G1 X77.738 Y79.256 E9.91194
G1 X78.12 Y78.847 E9.93055
G1 X78.57 Y78.394 E9.95179
G1 X79.57 Y77.452 E9.99748
G1 X81.715 Y75.51 E10.09372
G1 X82.091 Y75.18 E10.11036
G1 X82.572 Y74.783 E10.1311
G1 X83.709 Y73.905 E10.17888
G1 X86.02 Y72.192 E10.27456
G1 X86.396 Y71.922 E10.28996
G1 X86.915 Y71.573 E10.31076
G1 X88.154 Y70.796 E10.3594
G1 X90.549 Y69.363 E10.45223
G1 X91.027 Y69.086 E10.4706
G1 X91.583 Y68.786 E10.49162
G1 X92.838 Y68.162 E10.53823
G1 X95.406 Y66.948 E10.63271
G1 X95.887 Y66.729 E10.65029
G1 X96.473 Y66.484 E10.67141
G1 X97.834 Y65.966 E10.71985
G1 X100.489 Y65.018 E10.81361
G1 X100.976 Y64.852 E10.83073
G1 X101.581 Y64.667 E10.85177
G1 X102.966 Y64.291 E10.8995
G1 X105.672 Y63.614 E10.99228
G1 X106.17 Y63.495 E11.00931
G1 X106.844 Y63.358 E11.03218
G1 X108.261 Y63.121 E11.07997
G1 X111.014 Y62.714 E11.17253
G1 X111.559 Y62.641 E11.19082
G1 X112.203 Y62.576 E11.21234
G1 X113.627 Y62.478 E11.25982
G1 X116.413 Y62.342 E11.35259
G1 X116.97 Y62.323 E11.37113
G1 X117.607 Y62.321 E11.39232
G1 X118.84 Y62.356 E11.43334
G1 X121.721 Y62.495 E11.52928
G0 F6000 X121.74 Y62.096
G1 F1200 X122.399 Y62.137 E11.55124
G1 X123.056 Y62.2 E11.57319
G1 X124.518 Y62.388 E11.62222
G1 X127.222 Y62.79 E11.71314
G1 X127.793 Y62.882 E11.73238
G1 X128.477 Y63.015 E11.75555
G1 X129.859 Y63.335 E11.80273
G1 X132.642 Y64.032 E11.89815
G1 X133.107 Y64.155 E11.91415
G1 X133.754 Y64.349 E11.93662
G1 X135.014 Y64.772 E11.98082
G1 X137.766 Y65.758 E12.07805
G1 X138.278 Y65.949 E12.09623
G1 X138.897 Y66.202 E12.11847
G1 X140.076 Y66.732 E12.16146
G1 X142.728 Y67.988 E12.25906
G1 X143.363 Y68.299 E12.28258
G1 X143.872 Y68.566 E12.3017
G1 X144.421 Y68.878 E12.3227
G1 X147.47 Y70.706 E12.44094
G1 X148.073 Y71.079 E12.46452
G1 X148.561 Y71.4 E12.48395
G1 X149.019 Y71.723 E12.50259
G1 X149.235 Y71.882 E12.51151
G1 X151.899 Y73.859 E12.62185
G1 X152.346 Y74.199 E12.64053
G1 X152.882 Y74.635 E12.66351
G1 X153.833 Y75.465 E12.70549
G1 X156.014 Y77.442 E12.8034
G1 X156.552 Y77.944 E12.82787
G1 X156.982 Y78.369 E12.84798
G1 X157.54 Y78.966 E12.87516
G1 X159.774 Y81.432 E12.98583
G1 X160.126 Y81.831 E13.00353
G1 X160.547 Y82.34 E13.0255
G1 X161.325 Y83.346 E13.0678
G1 X163.116 Y85.763 E13.16785
G1 X163.439 Y86.214 E13.1863
G1 X163.782 Y86.725 E13.20677
G1 X164.464 Y87.81 E13.2494
G1 X165.99 Y90.36 E13.34824
G1 X166.347 Y90.976 E13.37192
G1 X166.619 Y91.476 E13.39085
G1 X166.911 Y92.059 E13.41254
G1 X168.429 Y95.267 E13.53058
G1 X168.634 Y95.718 E13.54705
G1 X168.885 Y96.318 E13.56869
G1 X169.407 Y97.691 E13.61754
G1 X170.361 Y100.363 E13.71191
G1 X170.534 Y100.871 E13.72976
G1 X170.723 Y101.486 E13.75116
G1 X171.072 Y102.771 E13.79544
G1 X171.774 Y105.577 E13.89165
G1 X171.939 Y106.272 E13.91541
G1 X172.072 Y106.919 E13.93737
G1 X172.171 Y107.509 E13.95727
G1 X172.683 Y110.965 E14.07347
G1 X172.755 Y111.503 E14.09153
G1 X172.823 Y112.17 E14.11383
G1 X172.921 Y113.602 E14.16157
G1 X173.058 Y116.398 E14.25467
G1 X173.077 Y116.956 E14.27324
G1 X173.079 Y117.618 E14.29526
G1 X173.035 Y119.07 E14.34358
G1 X172.895 Y121.901 E14.43785
G1 X172.863 Y122.399 E14.45445
G1 X172.8 Y123.056 E14.4764
G1 X172.613 Y124.516 E14.52536
G1 X172.212 Y127.213 E14.61605
G1 X172.117 Y127.8 E14.63583
G1 X171.985 Y128.477 E14.65877
G1 X171.665 Y129.859 E14.70595
G1 X170.963 Y132.659 E14.80196
G1 X170.845 Y133.102 E14.81721
G1 X170.657 Y133.729 E14.83898
G1 X170.195 Y135.105 E14.88725
G1 X169.245 Y137.76 E14.98104
G1 X169.071 Y138.228 E14.99765
G1 X168.809 Y138.866 E15.02059
G1 X168.205 Y140.21 E15.0696
G1 X167.009 Y142.734 E15.16249
G1 X166.699 Y143.368 E15.18597
G1 X166.408 Y143.921 E15.20675
G1 X166.125 Y144.414 E15.22566
G1 X164.296 Y147.467 E15.34403
G1 X163.924 Y148.069 E15.36757
G1 X163.528 Y148.664 E15.39134
G1 X163.133 Y149.214 E15.41386
G1 X161.135 Y151.907 E15.52539
G1 X160.796 Y152.352 E15.544
G1 X160.365 Y152.882 E15.56672
G1 X159.534 Y153.835 E15.60877
G1 X157.566 Y156.004 E15.70618
G1 X157.062 Y156.545 E15.73077
G1 X156.631 Y156.982 E15.75119
G1 X156.034 Y157.54 E15.77837
G1 X153.568 Y159.774 E15.88904
G1 X153.169 Y160.126 E15.90674
G1 X152.66 Y160.547 E15.92871
G1 X151.654 Y161.325 E15.971
G1 X149.237 Y163.116 E16.07106
G1 X148.786 Y163.439 E16.08951
G1 X148.275 Y163.782 E16.10998
G1 X147.191 Y164.464 E16.15258
G1 X144.636 Y165.993 E16.25161
G1 X144.023 Y166.348 E16.27517
G1 X143.525 Y166.619 E16.29403
G1 X143.219 Y166.775 E16.30545
G1 X142.941 Y166.911 E16.31574
G1 X139.745 Y168.423 E16.43334
G1 X139.131 Y168.703 E16.45578
G1 X138.614 Y168.923 E16.47447
G1 X138.309 Y169.043 E16.48537
G1 X138 Y169.159 E16.49635
G1 X134.675 Y170.348 E16.6138
G1 X134.109 Y170.541 E16.63369
G1 X133.49 Y170.731 E16.65522
G1 X132.277 Y171.061 E16.69704
G1 X129.411 Y171.777 E16.79529
G1 X128.718 Y171.941 E16.81897
G1 X128.093 Y172.069 E16.84019
G1 X127.491 Y172.171 E16.8605
G1 X124.03 Y172.684 E16.97687
G1 X123.49 Y172.756 E16.99499
G1 X122.829 Y172.823 E17.01709
G1 X121.397 Y172.921 E17.06483
G1 X118.6 Y173.058 E17.15797
G1 X118.043 Y173.077 E17.17651
G1 X117.381 Y173.079 E17.19852
G1 X115.93 Y173.035 E17.24681
G1 X113.1 Y172.895 E17.34105
G1 X112.57 Y172.861 E17.35871
G1 X111.926 Y172.8 E17.38023
G1 X110.612 Y172.632 E17.42429
G1 X107.714 Y172.201 E17.52174
G1 X107.014 Y172.086 E17.54533
G1 X106.48 Y171.984 E17.56341
G1 X106.135 Y171.909 E17.57515
G1 X105.815 Y171.834 E17.58609
G1 X102.385 Y170.975 E17.70369
G1 X101.884 Y170.841 E17.72094
G1 X101.266 Y170.655 E17.74241
G1 X99.9 Y170.197 E17.79033
G1 X97.238 Y169.244 E17.88437
G1 X96.73 Y169.055 E17.90239
G1 X96.102 Y168.798 E17.92496
G1 X94.932 Y168.272 E17.96763
G1 X92.256 Y167.004 E18.06612
G1 X91.632 Y166.698 E18.08924
G1 X91.128 Y166.434 E18.10816
G1 X90.856 Y166.282 E18.11852
G1 X90.58 Y166.122 E18.12913
G1 X87.525 Y164.291 E18.2476
G1 X86.924 Y163.919 E18.2711
G1 X86.439 Y163.6 E18.29041
G1 X85.822 Y163.159 E18.31564
G1 X83.093 Y161.135 E18.42864
G1 X82.648 Y160.796 E18.44725
G1 X82.118 Y160.365 E18.46997
G1 X81.167 Y159.535 E18.51195
G1 X78.981 Y157.553 E18.61009
G1 X78.447 Y157.054 E18.6344
G1 X78.043 Y156.656 E18.65327
G1 X77.461 Y156.036 E18.68155
G1 X75.18 Y153.517 E18.79458
G1 X74.856 Y153.148 E18.81091
G1 X74.448 Y152.655 E18.83219
G1 X73.675 Y151.654 E18.87426
G1 X71.885 Y149.238 E18.97427
G1 X71.582 Y148.815 E18.99157
G1 X71.228 Y148.288 E19.01269
G1 X70.459 Y147.061 E19.06085
G1 X69.015 Y144.65 E19.15432
G1 X68.653 Y144.025 E19.17835
G1 X68.341 Y143.445 E19.20025
G1 X68.008 Y142.771 E19.22525
G1 X66.578 Y139.75 E19.33642
G1 X66.288 Y139.114 E19.35967
G1 X66.02 Y138.47 E19.38287
G1 X65.771 Y137.807 E19.40643
G1 X64.665 Y134.71 E19.5158
G1 X64.462 Y134.116 E19.53668
G1 X64.269 Y133.49 E19.55847
G1 X63.939 Y132.277 E19.60028
G1 X63.223 Y129.411 E19.69853
G1 X63.059 Y128.718 E19.72222
G1 X62.931 Y128.093 E19.74344
G1 X62.829 Y127.491 E19.76375
G1 X62.316 Y124.03 E19.88012
G1 X62.244 Y123.49 E19.89824
G1 X62.177 Y122.829 E19.92034
G1 X62.079 Y121.397 E19.96808
G1 X61.942 Y118.601 E20.06118
G1 X61.923 Y118.045 E20.07969
G1 X61.921 Y117.382 E20.10174
G1 X61.965 Y115.93 E20.15005
G1 X62.105 Y113.1 E20.24429
G1 X62.139 Y112.57 E20.26196
G1 X62.2 Y111.926 E20.28347
G1 X62.368 Y110.612 E20.32753
G1 X62.798 Y107.718 E20.42485
G1 X62.885 Y107.187 E20.44274
G1 X63.012 Y106.541 E20.46464
G1 X63.336 Y105.133 E20.51269
G1 X64.032 Y102.358 E20.60785
G1 X64.155 Y101.893 E20.62385
G1 X64.349 Y101.246 E20.64631
G1 X64.772 Y99.986 E20.69052
G1 X65.756 Y97.238 E20.7876
G1 X65.946 Y96.728 E20.8057
G1 X66.201 Y96.104 E20.82812
G1 X66.731 Y94.924 E20.87115
G1 X67.997 Y92.254 E20.96943
G1 X68.302 Y91.632 E20.99247
G1 X68.566 Y91.128 E21.01139
G1 X68.878 Y90.579 E21.0324
G1 X70.701 Y87.539 E21.15029
G1 X71.075 Y86.933 E21.17398
G1 X71.483 Y86.321 E21.19844
G1 X71.867 Y85.787 E21.22032
G1 X73.858 Y83.103 E21.33147
G1 X74.197 Y82.657 E21.3501
G1 X74.633 Y82.12 E21.37311
G1 X75.469 Y81.161 E21.41542
G1 X77.445 Y78.983 E21.51323
G1 X77.827 Y78.574 E21.53185
G1 X78.296 Y78.103 E21.55395
G1 X79.302 Y77.156 E21.59991
G1 X81.451 Y75.209 E21.69636
G1 X81.827 Y74.879 E21.713
G1 X82.327 Y74.467 E21.73454
G1 X83.471 Y73.583 E21.78263
G1 X85.786 Y71.867 E21.87847
G1 X86.162 Y71.597 E21.89387
G1 X86.702 Y71.234 E21.91551
G1 X87.949 Y70.453 E21.96445
G1 X90.348 Y69.017 E22.05744
G1 X90.826 Y68.74 E22.07582
G1 X91.404 Y68.428 E22.09766
G1 X92.667 Y67.8 E22.14458
G1 X95.241 Y66.584 E22.23926
G1 X95.722 Y66.365 E22.25684
G1 X96.33 Y66.11 E22.27877
G1 X97.7 Y65.59 E22.32751
G1 X100.36 Y64.64 E22.42145
G1 X100.847 Y64.474 E22.43857
G1 X101.476 Y64.281 E22.46045
G1 X102.868 Y63.903 E22.50842
G1 X105.579 Y63.225 E22.60137
G1 X106.077 Y63.106 E22.6184
G1 X106.777 Y62.964 E22.64215
G1 X108.202 Y62.725 E22.69021
G1 X110.961 Y62.318 E22.78297
G1 X111.506 Y62.245 E22.80126
