;FLAVOR:Marlin
;TIME:6550
;Filament used: 4.90959m
;Layer height: 0.2
;MINX:61.521
;MINY:61.521
;MINZ:0.2
;MAXX:173.479
;MAXY:173.479
;MAXZ:10
;Generated with Cura_SteamEngine 4.6.1
M140 S50
M105
M190 S50
M104 S200
M105
M109 S200
M82 ;absolute extrusion mode
; Ender 3 Custom Start G-code
G92 E0 ; Reset Extruder
G28 ; Home all axes
G1 Z2.0 F3000 ; Move Z Axis up little to prevent scratching of Heat Bed
G1 X0.1 Y20 Z0.3 F5000.0 ; Move to start position
G1 X0.1 Y200.0 Z0.3 F1500.0 E15 ; Draw the first line
G1 X0.4 Y200.0 Z0.3 F5000.0 ; Move to side a little
G1 X0.4 Y20 Z0.3 F1500.0 E30 ; Draw the second line
G92 E0 ; Reset Extruder
G1 Z2.0 F3000 ; Move Z Axis up little to prevent scratching of Heat Bed
G1 X5 Y20 Z0.3 F5000.0 ; Move over to prevent blob squish
G92 E0
G92 E0
G1 F2700 E-5
;LAYER_COUNT:50
;LAYER:0
M107
G0 F6000 X121.721 Y62.495 Z0.2
;TYPE:SKIRT
G1 F2700 E0
G1 F1200 X122.373 Y62.536 E0.02173
G1 X123.005 Y62.596 E0.04284
G1 X124.459 Y62.784 E0.09161
G1 X127.159 Y63.185 E0.18239
G1 X127.73 Y63.277 E0.20163
G1 X128.388 Y63.405 E0.22393
G1 X129.762 Y63.723 E0.27083
G1 X132.556 Y64.424 E0.36664
G1 X132.999 Y64.542 E0.38189
G1 X133.602 Y64.722 E0.40282
G1 X134.97 Y65.181 E0.45081
G1 X137.623 Y66.131 E0.54454
G1 X138.131 Y66.32 E0.56257
G1 X138.735 Y66.567 E0.58427
G1 X139.898 Y67.089 E0.62667
G1 X142.552 Y68.348 E0.72437
G1 X143.187 Y68.659 E0.74789
G1 X143.677 Y68.915 E0.76628
G1 X144.215 Y69.221 E0.78686
G1 X147.26 Y71.046 E0.90494
G1 X147.863 Y71.419 E0.92852
G1 X148.332 Y71.728 E0.9472
G1 X148.782 Y72.046 E0.96553
G1 X148.998 Y72.205 E0.97445
G1 X151.657 Y74.178 E1.08457
G1 X152.104 Y74.518 E1.10325
G1 X152.62 Y74.937 E1.12536
G1 X153.565 Y75.761 E1.16706
G1 X155.741 Y77.734 E1.26476
G1 X156.279 Y78.236 E1.28923
G1 X156.693 Y78.645 E1.30859
G1 X157.244 Y79.234 E1.33541
G1 X159.474 Y81.697 E1.44592
G1 X159.826 Y82.096 E1.46362
G1 X160.232 Y82.586 E1.48478
G1 X161.004 Y83.584 E1.52675
G1 X162.791 Y85.996 E1.62659
G1 X163.114 Y86.447 E1.64504
G1 X163.444 Y86.938 E1.66472
G1 X164.121 Y88.015 E1.70703
G1 X165.647 Y90.565 E1.80587
G1 X166 Y91.174 E1.82928
G1 X166.262 Y91.656 E1.84753
G1 X166.55 Y92.23 E1.86888
G1 X168.065 Y95.432 E1.9867
G1 X168.27 Y95.883 E2.00318
G1 X168.511 Y96.461 E2.02401
G1 X169.031 Y97.826 E2.07259
G1 X169.982 Y100.489 E2.16664
G1 X170.148 Y100.976 E2.18375
G1 X170.333 Y101.581 E2.2048
G1 X170.709 Y102.966 E2.25253
G1 X171.393 Y105.701 E2.3463
G1 X171.552 Y106.375 E2.36933
G1 X171.668 Y106.938 E2.38845
G1 X171.772 Y107.549 E2.40906
G1 X172.287 Y111.018 E2.52571
G1 X172.359 Y111.556 E2.54376
G1 X172.424 Y112.198 E2.56522
G1 X172.522 Y113.622 E2.6127
G1 X172.658 Y116.412 E2.7056
G1 X172.677 Y116.97 E2.72417
G1 X172.679 Y117.606 E2.74533
G1 X172.636 Y119.051 E2.79341
G1 X172.496 Y121.875 E2.88745
G1 X172.464 Y122.373 E2.90405
G1 X172.404 Y123.005 E2.92516
G1 X172.217 Y124.457 E2.97386
G1 X171.817 Y127.15 E3.06441
G1 X171.722 Y127.737 E3.08419
G1 X171.595 Y128.388 E3.10625
G1 X171.277 Y129.762 E3.15315
G1 X170.576 Y132.556 E3.24896
G1 X170.458 Y132.999 E3.26421
G1 X170.278 Y133.602 E3.28514
G1 X169.819 Y134.97 E3.33313
G1 X168.87 Y137.621 E3.42679
G1 X168.696 Y138.089 E3.44339
G1 X168.444 Y138.702 E3.46544
G1 X167.843 Y140.039 E3.51419
G1 X166.652 Y142.553 E3.60672
G1 X166.425 Y143.018 E3.62393
G1 X166.11 Y143.612 E3.64629
G1 X165.398 Y144.852 E3.69385
G1 X163.957 Y147.255 E3.78704
G1 X163.594 Y147.842 E3.81
G1 X163.297 Y148.295 E3.82801
G1 X162.812 Y148.975 E3.85579
G1 X160.824 Y151.656 E3.9668
G1 X160.485 Y152.102 E3.98544
G1 X160.058 Y152.626 E4.00792
G1 X159.237 Y153.566 E4.04943
G1 X157.273 Y155.732 E4.14668
G1 X156.769 Y156.273 E4.17127
G1 X156.355 Y156.693 E4.19088
G1 X155.766 Y157.244 E4.21771
G1 X153.303 Y159.474 E4.32822
G1 X152.904 Y159.826 E4.34591
G1 X152.414 Y160.232 E4.36708
G1 X151.416 Y161.004 E4.40904
G1 X149.004 Y162.791 E4.50889
G1 X148.553 Y163.114 E4.52734
G1 X148.062 Y163.444 E4.54701
G1 X146.986 Y164.121 E4.5893
G1 X144.436 Y165.647 E4.68814
G1 X143.823 Y166.002 E4.7117
G1 X143.344 Y166.262 E4.72982
G1 X142.77 Y166.55 E4.75118
G1 X139.579 Y168.06 E4.8686
G1 X138.965 Y168.34 E4.89104
G1 X138.467 Y168.551 E4.90903
G1 X138.162 Y168.671 E4.91993
G1 X137.865 Y168.782 E4.93048
G1 X134.54 Y169.971 E5.04793
G1 X134.014 Y170.15 E5.06641
G1 X133.417 Y170.333 E5.08718
G1 X132.027 Y170.711 E5.13509
G1 X129.32 Y171.388 E5.22789
G1 X128.648 Y171.548 E5.25087
G1 X128.02 Y171.676 E5.27219
G1 X127.45 Y171.772 E5.29141
G1 X123.976 Y172.288 E5.40823
G1 X123.436 Y172.36 E5.42635
G1 X122.801 Y172.424 E5.44757
G1 X121.377 Y172.522 E5.49505
G1 X118.587 Y172.658 E5.58795
G1 X118.03 Y172.677 E5.60649
G1 X117.393 Y172.679 E5.62768
G1 X115.949 Y172.636 E5.67573
G1 X113.126 Y172.496 E5.76973
G1 X112.596 Y172.462 E5.7874
G1 X111.976 Y172.403 E5.80811
G1 X110.671 Y172.237 E5.85187
G1 X107.778 Y171.806 E5.94915
G1 X107.078 Y171.691 E5.97274
G1 X106.565 Y171.593 E5.99012
G1 X105.912 Y171.446 E6.01238
G1 X102.491 Y170.589 E6.12968
G1 X101.967 Y170.449 E6.14772
G1 X101.374 Y170.272 E6.1683
G1 X100.124 Y169.852 E6.21216
G1 X97.374 Y168.868 E6.3093
G1 X96.862 Y168.677 E6.32748
G1 X96.267 Y168.433 E6.34887
G1 X95.096 Y167.907 E6.39156
G1 X92.432 Y166.645 E6.48961
G1 X91.808 Y166.339 E6.51272
G1 X91.323 Y166.085 E6.53093
G1 X90.785 Y165.779 E6.55152
G1 X87.736 Y163.951 E6.66976
G1 X87.135 Y163.579 E6.69327
G1 X86.668 Y163.272 E6.71186
G1 X86.059 Y162.837 E6.73675
G1 X83.335 Y160.817 E6.84954
G1 X82.89 Y160.478 E6.86815
G1 X82.38 Y160.063 E6.89002
G1 X81.435 Y159.239 E6.93172
G1 X79.254 Y157.261 E7.02965
G1 X78.72 Y156.762 E7.05396
G1 X78.332 Y156.379 E7.07209
G1 X77.758 Y155.767 E7.1
G1 X75.48 Y153.253 E7.21283
G1 X75.156 Y152.884 E7.22917
G1 X74.764 Y152.409 E7.24965
G1 X73.996 Y151.416 E7.2914
G1 X72.21 Y149.005 E7.3912
G1 X71.907 Y148.582 E7.4085
G1 X71.566 Y148.075 E7.42883
G1 X70.802 Y146.856 E7.47668
G1 X69.362 Y144.449 E7.56997
G1 X69 Y143.824 E7.59399
G1 X68.699 Y143.266 E7.61508
G1 X68.369 Y142.6 E7.6398
G1 X66.942 Y139.584 E7.75077
G1 X66.652 Y138.948 E7.77402
G1 X66.394 Y138.328 E7.79636
G1 X66.148 Y137.672 E7.81966
G1 X65.043 Y134.581 E7.92884
G1 X64.84 Y133.987 E7.94971
G1 X64.655 Y133.384 E7.97069
G1 X64.327 Y132.179 E8.01223
G1 X63.612 Y129.319 E8.11028
G1 X63.448 Y128.626 E8.13397
G1 X63.325 Y128.025 E8.15437
G1 X63.225 Y127.432 E8.17437
G1 X62.712 Y123.977 E8.29055
G1 X62.64 Y123.437 E8.30867
G1 X62.576 Y122.801 E8.32993
G1 X62.478 Y121.377 E8.3774
G1 X62.342 Y118.587 E8.47031
G1 X62.323 Y118.031 E8.48881
G1 X62.321 Y117.394 E8.51
G1 X62.364 Y115.949 E8.55808
G1 X62.504 Y113.126 E8.65209
G1 X62.538 Y112.596 E8.66975
G1 X62.597 Y111.976 E8.69047
G1 X62.764 Y110.67 E8.73426
G1 X63.195 Y107.776 E8.83157
G1 X63.309 Y107.081 E8.855
G1 X63.407 Y106.565 E8.87247
G1 X63.554 Y105.912 E8.89473
G1 X64.411 Y102.491 E9.01203
G1 X64.551 Y101.967 E9.03007
G1 X64.728 Y101.374 E9.05065
G1 X65.148 Y100.124 E9.09451
G1 X66.132 Y97.375 E9.19162
G1 X66.308 Y96.903 E9.20838
G1 X66.557 Y96.295 E9.23023
G1 X67.16 Y94.956 E9.27907
G1 X68.354 Y92.435 E9.37185
G1 X68.664 Y91.802 E9.39529
G1 X68.945 Y91.268 E9.41536
G1 X69.323 Y90.616 E9.44043
G1 X71.056 Y87.724 E9.55257
G1 X71.418 Y87.138 E9.57548
G1 X71.806 Y86.557 E9.59871
G1 X72.188 Y86.025 E9.6205
G1 X74.176 Y83.345 E9.73148
G1 X74.515 Y82.899 E9.75011
G1 X74.935 Y82.383 E9.77224
G1 X75.766 Y81.43 E9.8143
G1 X77.738 Y79.256 E9.91192
G1 X78.12 Y78.847 E9.93053
G1 X78.57 Y78.394 E9.95177
G1 X79.57 Y77.452 E9.99747
G1 X81.715 Y75.51 E10.0937
G1 X82.091 Y75.18 E10.11034
G1 X82.572 Y74.783 E10.13109
G1 X83.709 Y73.905 E10.17887
G1 X86.02 Y72.192 E10.27454
G1 X86.396 Y71.922 E10.28994
G1 X86.915 Y71.573 E10.31074
G1 X88.154 Y70.796 E10.35938
G1 X90.549 Y69.363 E10.45221
G1 X91.027 Y69.086 E10.47059
G1 X91.583 Y68.786 E10.4916
G1 X92.838 Y68.162 E10.53822
G1 X95.406 Y66.948 E10.63269
G1 X95.887 Y66.729 E10.65027
G1 X96.473 Y66.484 E10.6714
G1 X97.834 Y65.966 E10.71983
G1 X100.489 Y65.018 E10.8136
G1 X100.976 Y64.852 E10.83071
G1 X101.581 Y64.667 E10.85175
G1 X102.966 Y64.291 E10.89948
G1 X105.672 Y63.614 E10.99226
G1 X106.17 Y63.495 E11.00929
G1 X106.844 Y63.358 E11.03217
G1 X108.261 Y63.121 E11.07995
G1 X111.014 Y62.714 E11.17251
G1 X111.559 Y62.641 E11.1908
G1 X112.203 Y62.576 E11.21233
G1 X113.627 Y62.478 E11.2598
G1 X116.413 Y62.342 E11.35257
G1 X116.97 Y62.323 E11.37111
G1 X117.607 Y62.321 E11.3923
G1 X118.84 Y62.356 E11.43332
G1 X121.721 Y62.495 E11.52926
G0 F6000 X121.74 Y62.096
G1 F1200 X122.399 Y62.137 E11.55122
G1 X123.056 Y62.2 E11.57317
G1 X124.518 Y62.388 E11.6222
G1 X127.222 Y62.79 E11.71312
G1 X127.793 Y62.882 E11.73236
G1 X128.477 Y63.015 E11.75553
G1 X129.859 Y63.335 E11.80272
G1 X132.659 Y64.037 E11.89873
G1 X133.102 Y64.155 E11.91397
G1 X133.729 Y64.343 E11.93575
G1 X135.105 Y64.805 E11.98402
G1 X137.762 Y65.756 E12.07788
G1 X138.27 Y65.945 E12.09591
G1 X138.898 Y66.202 E12.11848
G1 X140.069 Y66.728 E12.16118
G1 X142.728 Y67.988 E12.25904
G1 X143.363 Y68.299 E12.28256
G1 X143.872 Y68.566 E12.30168
G1 X144.421 Y68.878 E12.32268
G1 X147.47 Y70.706 E12.44092
G1 X148.073 Y71.079 E12.4645
G1 X148.561 Y71.4 E12.48393
G1 X149.019 Y71.723 E12.50257
G1 X149.235 Y71.882 E12.51149
G1 X151.899 Y73.859 E12.62183
G1 X152.346 Y74.199 E12.64051
G1 X152.882 Y74.635 E12.66349
G1 X153.833 Y75.465 E12.70547
G1 X156.014 Y77.442 E12.80338
G1 X156.552 Y77.944 E12.82785
G1 X156.982 Y78.369 E12.84796
G1 X157.54 Y78.966 E12.87514
G1 X159.774 Y81.432 E12.98581
G1 X160.126 Y81.831 E13.00351
G1 X160.547 Y82.34 E13.02548
G1 X161.325 Y83.346 E13.06778
G1 X163.116 Y85.763 E13.16783
G1 X163.439 Y86.214 E13.18628
G1 X163.782 Y86.725 E13.20675
G1 X164.464 Y87.81 E13.24938
G1 X165.993 Y90.364 E13.34838
G1 X166.346 Y90.973 E13.3718
G1 X166.619 Y91.475 E13.3908
G1 X166.775 Y91.781 E13.40222
G1 X166.911 Y92.059 E13.41252
G1 X168.429 Y95.267 E13.53056
G1 X168.634 Y95.718 E13.54704
G1 X168.885 Y96.318 E13.56867
G1 X169.407 Y97.691 E13.61752
G1 X170.36 Y100.36 E13.71178
G1 X170.526 Y100.847 E13.7289
G1 X170.719 Y101.476 E13.75078
G1 X171.097 Y102.868 E13.79876
G1 X171.782 Y105.609 E13.89272
G1 X171.941 Y106.283 E13.91576
G1 X172.061 Y106.868 E13.93562
G1 X172.168 Y107.49 E13.95661
G1 X172.683 Y110.965 E14.07345
G1 X172.755 Y111.503 E14.09151
G1 X172.823 Y112.17 E14.11381
G1 X172.921 Y113.602 E14.16155
G1 X173.058 Y116.398 E14.25465
G1 X173.077 Y116.956 E14.27322
G1 X173.079 Y117.618 E14.29524
G1 X173.035 Y119.07 E14.34356
G1 X172.895 Y121.901 E14.43783
G1 X172.863 Y122.399 E14.45443
G1 X172.8 Y123.056 E14.47638
G1 X172.613 Y124.516 E14.52534
G1 X172.212 Y127.213 E14.61603
G1 X172.117 Y127.8 E14.6358
G1 X171.985 Y128.477 E14.65875
G1 X171.665 Y129.859 E14.70593
G1 X170.963 Y132.659 E14.80194
G1 X170.845 Y133.102 E14.81719
G1 X170.657 Y133.729 E14.83896
G1 X170.195 Y135.105 E14.88723
G1 X169.245 Y137.76 E14.98102
G1 X169.071 Y138.228 E14.99763
G1 X168.809 Y138.866 E15.02057
G1 X168.205 Y140.21 E15.06958
G1 X167.012 Y142.728 E15.16225
G1 X166.785 Y143.193 E15.17946
G1 X166.458 Y143.81 E15.20269
G1 X165.741 Y145.058 E15.25056
G1 X164.297 Y147.465 E15.34392
G1 X163.934 Y148.052 E15.36687
G1 X163.626 Y148.523 E15.38559
G1 X163.134 Y149.214 E15.4138
G1 X161.142 Y151.898 E15.52497
G1 X160.803 Y152.344 E15.5436
G1 X160.36 Y152.889 E15.56696
G1 X159.534 Y153.835 E15.60873
G1 X157.566 Y156.004 E15.70615
G1 X157.062 Y156.545 E15.73074
G1 X156.631 Y156.982 E15.75115
G1 X156.034 Y157.54 E15.77833
G1 X153.568 Y159.774 E15.889
G1 X153.169 Y160.126 E15.9067
G1 X152.66 Y160.547 E15.92867
G1 X151.654 Y161.325 E15.97097
G1 X149.237 Y163.116 E16.07102
G1 X148.786 Y163.439 E16.08947
G1 X148.275 Y163.782 E16.10994
G1 X147.191 Y164.464 E16.15254
G1 X144.636 Y165.993 E16.25157
G1 X144.023 Y166.348 E16.27513
G1 X143.525 Y166.619 E16.29399
G1 X143.219 Y166.775 E16.30541
G1 X142.941 Y166.911 E16.31571
G1 X139.745 Y168.423 E16.4333
G1 X139.131 Y168.703 E16.45575
G1 X138.614 Y168.923 E16.47444
G1 X138.309 Y169.043 E16.48534
G1 X138 Y169.159 E16.49631
G1 X134.669 Y170.35 E16.61397
G1 X134.143 Y170.529 E16.63245
G1 X133.523 Y170.719 E16.65402
G1 X132.124 Y171.099 E16.70224
G1 X129.412 Y171.777 E16.79522
G1 X128.74 Y171.937 E16.81819
G1 X128.088 Y172.071 E16.84033
G1 X127.509 Y172.168 E16.85986
G1 X124.029 Y172.684 E16.97687
G1 X123.489 Y172.756 E16.99499
G1 X122.829 Y172.823 E17.01705
G1 X121.397 Y172.921 E17.06479
G1 X118.6 Y173.058 E17.15793
G1 X118.043 Y173.077 E17.17647
G1 X117.381 Y173.079 E17.19849
G1 X115.93 Y173.035 E17.24677
G1 X113.1 Y172.895 E17.34101
G1 X112.57 Y172.861 E17.35867
G1 X111.926 Y172.8 E17.38019
G1 X110.612 Y172.632 E17.42425
G1 X107.714 Y172.201 E17.5217
G1 X107.014 Y172.086 E17.54529
G1 X106.48 Y171.984 E17.56337
G1 X106.135 Y171.909 E17.57512
G1 X105.815 Y171.834 E17.58605
G1 X102.388 Y170.976 E17.70355
G1 X101.864 Y170.836 E17.72159
G1 X101.248 Y170.651 E17.74298
G1 X99.989 Y170.229 E17.78714
G1 X97.234 Y169.242 E17.88448
G1 X96.722 Y169.051 E17.90265
G1 X96.103 Y168.798 E17.9249
G1 X94.925 Y168.269 E17.96784
G1 X92.256 Y167.004 E18.06608
G1 X91.632 Y166.698 E18.0892
G1 X91.128 Y166.434 E18.10812
G1 X90.856 Y166.282 E18.11848
G1 X90.58 Y166.122 E18.1291
G1 X87.525 Y164.291 E18.24756
G1 X86.924 Y163.919 E18.27107
G1 X86.439 Y163.6 E18.29037
G1 X85.822 Y163.159 E18.3156
G1 X83.093 Y161.135 E18.4286
G1 X82.648 Y160.796 E18.44721
G1 X82.118 Y160.365 E18.46993
G1 X81.167 Y159.535 E18.51191
G1 X78.981 Y157.553 E18.61006
G1 X78.447 Y157.054 E18.63437
G1 X78.043 Y156.656 E18.65323
G1 X77.461 Y156.036 E18.68151
G1 X75.18 Y153.517 E18.79454
G1 X74.856 Y153.148 E18.81087
G1 X74.448 Y152.655 E18.83216
G1 X73.675 Y151.654 E18.87422
G1 X71.885 Y149.238 E18.97423
G1 X71.582 Y148.815 E18.99153
G1 X71.228 Y148.288 E19.01265
G1 X70.459 Y147.061 E19.06081
G1 X69.015 Y144.65 E19.15429
G1 X68.653 Y144.025 E19.17831
G1 X68.341 Y143.445 E19.20021
G1 X68.008 Y142.771 E19.22522
G1 X66.578 Y139.75 E19.33638
G1 X66.288 Y139.114 E19.35963
G1 X66.02 Y138.47 E19.38283
G1 X65.771 Y137.807 E19.40639
G1 X64.665 Y134.71 E19.51577
G1 X64.462 Y134.116 E19.53665
G1 X64.269 Y133.49 E19.55843
G1 X63.939 Y132.277 E19.60024
G1 X63.223 Y129.411 E19.6985
G1 X63.059 Y128.718 E19.72218
G1 X62.931 Y128.093 E19.7434
G1 X62.829 Y127.491 E19.76371
G1 X62.316 Y124.03 E19.88008
G1 X62.244 Y123.49 E19.8982
G1 X62.177 Y122.829 E19.9203
G1 X62.079 Y121.397 E19.96804
G1 X61.942 Y118.601 E20.06114
G1 X61.923 Y118.045 E20.07965
G1 X61.921 Y117.382 E20.1017
G1 X61.965 Y115.93 E20.15002
G1 X62.105 Y113.1 E20.24426
G1 X62.139 Y112.57 E20.26192
G1 X62.2 Y111.926 E20.28344
G1 X62.368 Y110.611 E20.32753
G1 X62.8 Y107.711 E20.42505
G1 X62.914 Y107.016 E20.44847
G1 X63.016 Y106.48 E20.46662
G1 X63.091 Y106.135 E20.47836
G1 X63.166 Y105.815 E20.48929
G1 X64.024 Y102.388 E20.60679
G1 X64.164 Y101.864 E20.62483
G1 X64.349 Y101.248 E20.64623
G1 X64.771 Y99.989 E20.69039
G1 X65.757 Y97.236 E20.78765
G1 X65.933 Y96.764 E20.80441
G1 X66.192 Y96.131 E20.82715
G1 X66.798 Y94.785 E20.87625
G1 X67.994 Y92.259 E20.96921
G1 X68.304 Y91.626 E20.99265
G1 X68.597 Y91.071 E21.01352
G1 X68.979 Y90.412 E21.03886
G1 X70.716 Y87.514 E21.15123
G1 X71.078 Y86.928 E21.17414
G1 X71.481 Y86.324 E21.19829
G1 X71.867 Y85.787 E21.22029
G1 X73.858 Y83.103 E21.33144
G1 X74.197 Y82.657 E21.35007
G1 X74.633 Y82.12 E21.37308
G1 X75.469 Y81.161 E21.41539
G1 X77.445 Y78.983 E21.51321
G1 X77.827 Y78.574 E21.53182
G1 X78.296 Y78.103 E21.55393
G1 X79.302 Y77.156 E21.59988
G1 X81.451 Y75.209 E21.69633
G1 X81.827 Y74.879 E21.71297
G1 X82.327 Y74.467 E21.73452
G1 X83.471 Y73.583 E21.7826
G1 X85.786 Y71.867 E21.87845
G1 X86.162 Y71.597 E21.89384
G1 X86.702 Y71.234 E21.91548
G1 X87.949 Y70.453 E21.96442
G1 X90.348 Y69.017 E22.05741
G1 X90.826 Y68.74 E22.07579
G1 X91.404 Y68.428 E22.09764
G1 X92.667 Y67.8 E22.14455
G1 X95.241 Y66.584 E22.23923
G1 X95.722 Y66.365 E22.25681
G1 X96.33 Y66.11 E22.27874
G1 X97.7 Y65.59 E22.32748
G1 X100.36 Y64.64 E22.42142
G1 X100.847 Y64.474 E22.43854
G1 X101.476 Y64.281 E22.46042
G1 X102.868 Y63.903 E22.50839
G1 X105.579 Y63.225 E22.60134
G1 X106.077 Y63.106 E22.61837
G1 X106.777 Y62.964 E22.64213
G1 X108.202 Y62.725 E22.69018
